**kern	**text	**kern	**text	**kern	**text
*staff3	*staff3	*staff2	*staff2	*staff1	*staff1
*I"Basso	*	*I"Canto II	*	*I"Canto I	*
=1-	=1-	=1-	=1-	=1-	=1-
*clefF4	*	*clefG2	*	*clefG2	*
*k[b-]	*	*k[b-]	*	*k[b-]	*
*met(c|)	*	*met(c|)	*	*met(c|)	*
*M2/2	*	*M2/2	*	*M2/2	*
1r	.	1r	.	1f	Ti-
=2	=2	=2	=2	=2	=2
1r	.	1r	.	1a	-met
=3	=3	=3	=3	=3	=3
1r	.	1r	.	1cc	la-
=4	=4	=4	=4	=4	=4
1r	.	1r	.	1a	-tro
=5	=5	=5	=5	=5	=5
1F	di-	1cc	di-	1r	.
=6	=6	=6	=6	=6	=6
1F	-a-	1cc	-a-	1r	.
=7	=7	=7	=7	=7	=7
1F	-bo-	1cc	-bo-	1r	.
=8	=8	=8	=8	=8	=8
1F	-lus	1cc	-lus	1r	.
=9	=9	=9	=9	=9	=9
1r	.	1r	.	1dd	ma-
=10	=10	=10	=10	=10	=10
1r	.	1r	.	2cc\	-le-
.	.	.	.	2b-\	.
=11	=11	=11	=11	=11	=11
1r	.	1r	.	1cc	-dic-
=12	=12	=12	=12	=12	=12
1r	.	1r	.	1a	-tus
=13	=13	=13	=13	=13	=13
*M3/2	*	*M3/2	*	*M3/2	*
1F	i-	1cc	i-	1f	i-
2C/	-ni-	2b-\	-ni-	2g/	-ni-
=14	=14	=14	=14	=14	=14
1F	-mi-	1cc	-mi-	1a	-mi-
2F\	-cus	2cc\	-cus	2a/	-cus
=15	=15	=15	=15	=15	=15
1BB-	ho-	1dd	ho-	1b-	ho-
2BB-/	-mi-	2b-\	-mi-	2g/	-mi-
=16	=16	=16	=16	=16	=16
1F	-ni-	1cc	-ni-	1a	-ni-
2F\	-bus	2cc\	-bus	2a/	-bus
=17	=17	=17	=17	=17	=17
1F	i-	1cc	i-	1f	i-
2C/	-ni-	2b-\	-ni-	2g/	-ni-
=18	=18	=18	=18	=18	=18
1F	-mi-	1cc	-mi-	1a	-mi-
2F\	-cus	2cc\	-cus	2a/	-cus
=19	=19	=19	=19	=19	=19
1BB-	ho-	1dd	ho-	1b-	ho-
2BB-/	-mi-	2b-\	-mi-	2g/	-mi-
=20	=20	=20	=20	=20	=20
1F	-ni-	1cc	-ni-	1a	-ni-
2F\	-bus	2cc\	-bus	2a/	-bus
=21	=21	=21	=21	=21	=21
*met(c|)	*	*met(c|)	*	*met(c|)	*
*M2/2	*	*M2/2	*	*M2/2	*
1F	et	1cc	et	1r	.
=22	=22	=22	=22	=22	=22
1F	quem	1cc	quem	1r	.
=23	=23	=23	=23	=23	=23
1F	ti-	1cc	ti-	1r	.
=24	=24	=24	=24	=24	=24
1F	-met	1cc	-met	1r	.
=25	=25	=25	=25	=25	=25
1r	.	1r	.	1dd	Chris-
=26	=26	=26	=26	=26	=26
1r	.	1r	.	2cc\	-tum
.	.	.	.	2b-\	.
=27	=27	=27	=27	=27	=27
1r	.	1r	.	1cc	na-
=28	=28	=28	=28	=28	=28
1r	.	1r	.	1a	-tum
=29	=29	=29	=29	=29	=29
1F	u-	1cc	u-	1r	.
=30	=30	=30	=30	=30	=30
1F	-bi	1cc	-bi	1r	.
=31	=31	=31	=31	=31	=31
1F	u-	1cc	u-	1r	.
=32	=32	=32	=32	=32	=32
1F	-bi	1cc	-bi	1r	.
=33	=33	=33	=33	=33	=33
1r	.	1r	.	1dd	in
=34	=34	=34	=34	=34	=34
1r	.	1r	.	2cc\	Be-
.	.	.	.	2b-\	.
=35	=35	=35	=35	=35	=35
1r	.	1r	.	1cc	-thle-
=36	=36	=36	=36	=36	=36
1r	.	1r	.	1a	-em
=37	=37	=37	=37	=37	=37
1F	sit	1cc	in	1r	.
=38	=38	=38	=38	=38	=38
1F	e-	1cc	ae-	1r	.
=39	=39	=39	=39	=39	=39
1F	-i	1cc	-ter-	1r	.
=40	=40	=40	=40	=40	=40
1F	laus	1cc	-num	1r	.
=41	=41	=41	=41	=41	=41
1r	.	1r	.	1dd	in
=42	=42	=42	=42	=42	=42
1r	.	1r	.	2cc\	ae-
.	.	.	.	2b-\	.
=43	=43	=43	=43	=43	=43
1r	.	1r	.	1cc	-ter-
=44	=44	=44	=44	=44	=44
1r	.	1r	.	1a	-num
=45	=45	=45	=45	=45	=45
*M3/2	*	*M3/2	*	*M3/2	*
1F	in	1cc	in	1f	in
2C/	ae-	2b-\	ae-	2g/	ae-
=46	=46	=46	=46	=46	=46
1F	-ter-	1cc	-ter-	1a	-ter-
2F\	-num	2cc\	-num	2a/	-num
=47	=47	=47	=47	=47	=47
1BB-	in	1dd	in	1b-	in
2BB-/	ae-	2b-\	ae-	2g/	ae-
=48	=48	=48	=48	=48	=48
1F	-ter-	1cc	-ter-	1a	-ter-
2F\	-num	2cc\	-num	2a/	-num
=49	=49	=49	=49	=49	=49
1F	in	1cc	in	1f	in
2C/	ae-	2b-\	ae-	2g/	ae-
=50	=50	=50	=50	=50	=50
1F	-ter-	1cc	-ter-	1a	-ter-
2F\	-num	2cc\	-num	2a/	-num
=51	=51	=51	=51	=51	=51
1BB-	in	1dd	in	1b-	in
2BB-/	ae-	2b-\	ae-	2g/	ae-
=52	=52	=52	=52	=52	=52
1F	-ter-	1cc	-ter-	1a	-ter-
2F\	-num.	2cc\	-num.	2a/	-num.
==	==	==	==	==	==
*-	*-	*-	*-	*-	*-
